X:360
T: Die Freudenlose (91a), S. 236
N: T0249
O: Luxemburg
S: Singendes Volk, Esch-Alzette 1937 posth.]
N: Reuland, hhh Johann Frank, 1906;
N: (91b)- Straen, fff Witry, 17.3.1933
R: Liebeslieder]
M: 3/4
L: 1/16
K: Bb
B4 | A2G2F4G4 | F2E2D2
F2B2c2 | d4d4c2c2 | B4z2
B2A2B2 | c3dc2FFB2c2 | d3ed2z2
B2d2 | f4f4e2e2 | d4z4

@@@ Tune index: 8414
